X: 44
T:Tripping Up the Stairs
T:Tripping Upstairs
M:6/8
L:1/8
R:jig
K:D
"D"FAA "G"GBB|"D"FAd fed|"A"cBc ABc|"D"dfe dAG|
FAA "G"GBB|"D"FAd fed|"A"cBc ABc|1 "D"dfe d2A:|2 "D"dfe d2c||
"Bm"dBB fBB|dBB fed|"A"cAA eAA|efe edc|
"Bm"dBB fBB|faf fed|"A"cBc ABc|"D"dfe d2c|
"Bm"dBB fBB|faa fed|"A"cAA eAA|aga edc|
"Bm"dBB fBB|faf fed|"A"cBc ABc|"D"dfe d2A|
